X:29
T:The Deil Amang the Tailors
Z:Jack Campin, 2006, http://www.campin.me.uk/
M:C|
L:1/8
Q:1/2=120
K:A
eg|a2eg a2eg|a2ea fedc|dfBf dfBf|dfba gefg|
   a2eg a2eg|a2ea fedc|defe dcBA|E2G2 A2 :|
ed|ceAe ceAe|ceAa fedc|dfBf dfBf|dfBb gfed|
   ceAe ceAe|ceAa fedc|defe dcBA|E2G2 A2 :|
% Shetland Reels
% --------------
